assets/svg/1F457.svg

<svg xmlns="http://www.w3.org/2000/svg" viewBox="0 0 64 64" enable-background="new 0 0 64 64"><g transform="translate(6)"><g fill-rule="evenodd"><path d="m50.47 10.01c-2.061-2.346-3.216-5.407-6.297-6.946-1.598-.804-3.361-1.328-5.064-1.953-.913-.333-1.847-.607-2.774-.917-.775-.264-1.439-.349-2.068.364-1.776 2.02-4.076 3.495-6.811 4.12-.653.148-1.339.24-2.038.278-.701-.039-1.391-.13-2.038-.278-2.736-.625-5.04-2.099-6.81-4.12-.633-.713-1.297-.627-2.073-.364-.921.311-1.859.585-2.771.917-1.705.625-3.471 1.149-5.068 1.953-3.08 1.539-4.236 4.6-6.295 6.946-.197.219.029.875.256 1.226.199.294.674.442 1.033.656 2.14 1.26 4.6 2.062 6.433 3.779.524.487 1.376.672 1.991 1.104.339.239.644.68.696 1.063.148 1.025 5.345 1.433 5.509 5.468.171 4.214-10.77 21.516-11.913 25.701-.601 2.2-2.828 4.417-3.262 6.649-.451 2.294-.696 4.62-1.019 6.845.893.325 1.437.662 2 .702 2.633.188 6.912.395 9.552.395 2.412 0 11.361-.041 13.775-.09 2.409.049 4.823.09 7.232.09 2.641 0 15.09-.207 17.729-.395.568-.04 1.11-.377 2-.702-.323-2.225-.568-4.551-1.018-6.845-.436-2.232-2.661-4.449-3.262-6.649-1.14-4.184-15.353-21.485-15.186-25.699.075-1.829 5.253-5.286 5.509-7.102.055-.384 1.995.81 2.334.57.611-.433 1.47-.617 1.991-1.104 1.833-1.717 4.295-2.519 6.433-3.779.357-.213.836-.361 1.031-.656.228-.352.45-1.01.258-1.227" fill="#2780b2"/><path d="m25.586 54.779c-.357-2.765-.187-5.549-.646-8.313-.021-.13-.037-.228-.049-.301-.012-.053-.02-.109-.034-.179-.055-.272-.116-.544-.177-.816-.154-.689.921-14.311.733-14.997-.298-1.08-.528-1.965-.737-3.065-.27-1.466-.28-2.673.221-4.147.572-1.683-.262-3.636.98-4.992.353-.381.763-.694 1.169-1.031.012-.008.024-.017.035-.024-.022-.205-.049-.408-.082-.609-.079-.479-.181-.954-.237-1.433-.333-2.854-.986-5.704-.432-8.576.099-.51.237-1 .41-1.482-.436.069-.879.116-1.327.14-.701-.039-1.391-.13-2.038-.278-2.736-.625-5.04-2.099-6.81-4.12-.633-.713-1.297-.627-2.073-.364-.921.311-1.859.585-2.771.917-1.705.625-3.471 1.149-5.068 1.953-3.08 1.539-4.236 4.6-6.295 6.946-.197.219.029.875.256 1.226.199.294.674.442 1.033.656 2.14 1.26 4.6 2.062 6.433 3.779.524.487 1.376.672 1.991 1.104.339.239.644.68.696 1.063.148 1.025 5.345 1.433 5.509 5.468.171 4.214-10.77 21.516-11.913 25.701-.601 2.2-2.828 4.417-3.262 6.649-.451 2.294-.696 4.62-1.019 6.845.893.325 1.437.662 2 .702 2.633.188 6.912.395 9.552.395 2.412 0 11.361-.041 13.775-.09 1.224.024 2.446.045 3.672.061-1.795-2.758-3.106-5.763-3.498-8.788" fill="#2e8ecd"/><g fill="#1a698c"><path d="m1.973 7.788c.601-.735 1.135-1.524 1.675-2.306-.602.735-1.137 1.522-1.675 2.306"/><path d="m10.07 16.69c.339.24.644.678.696 1.064.03.203 1.697-1.23 1.726-1.027.053-.162.107-.325.16-.487.229-.694-1.033.308-.55-.224-.002-.018-.004-.037-.008-.059-.053-.382-.361-.826-.698-1.064-.611-.432-1.47-.615-1.991-1.102-1.831-1.717-4.292-2.521-6.433-3.784-.356-.21-.835-.356-1.032-.652-.185-.284-.37-.778-.319-1.068-.396.564-.81 1.121-1.265 1.638-.197.221.029.875.256 1.224.199.296.674.444 1.033.653 2.14 1.263 4.6 2.062 6.433 3.786.524.486 1.377.672 1.992 1.102"/></g><g fill="#1a698c"><path d="m48.858 7.836c-.607-.735-1.144-1.522-1.681-2.306.601.731 1.137 1.521 1.681 2.306"/><path d="m40.753 16.739c-.339.24-2.279-.954-2.334-.572-.028.203-.058.404-.09.605-.053-.159-.105-.319-.156-.483-.231-.696 1.029.309.548-.225.002-.019.009-.039.009-.057.051-.384.359-.824.7-1.064.61-.432 1.468-.613 1.991-1.106 1.829-1.717 4.291-2.519 6.431-3.78.356-.211.834-.357 1.028-.656.193-.284.372-.775.325-1.065.394.562.808 1.116 1.261 1.636.192.219-.03.875-.258 1.226-.195.296-.674.445-1.031.654-2.138 1.263-4.6 2.064-6.433 3.784-.521.489-1.38.671-1.991 1.103"/><path d="m14.913 1.187c2.109 2.729 4.829 4.722 8.08 5.57.775.203 1.594.32 2.422.373.826-.053 1.642-.17 2.417-.373 3.25-.849 5.974-2.842 8.09-5.57.377-.491.767-.702 1.179-.747-.255-.082-.509-.163-.765-.248-.775-.264-1.439-.349-2.068.364-1.776 2.02-4.076 3.495-6.811 4.12-.653.148-1.339.24-2.038.278-.701-.039-1.391-.13-2.038-.278-2.736-.625-5.04-2.099-6.81-4.12-.633-.713-1.297-.627-2.073-.364-.253.085-.507.167-.763.248.415.044.802.255 1.184.747"/><path d="m50.37 60.662c-2.635.179-15.09.39-17.729.39-2.409-.004-4.823-.036-7.232-.089-2.413.053-11.363.085-13.774.089-2.641 0-6.919-.211-9.552-.39-.493-.036-.968-.301-1.675-.581-.105.816-.213 1.62-.329 2.42.893.325 1.437.662 2 .702 2.633.188 6.912.395 9.552.395 2.412 0 11.361-.041 13.775-.09 2.409.049 4.823.09 7.232.09 2.641 0 15.09-.207 17.729-.395.568-.04 1.11-.377 2-.702-.116-.8-.224-1.604-.329-2.42-.704.28-1.18.545-1.673.581"/></g></g><path d="m16.17 22.5l-.329 2.854c.016.002.032.006.048.008 11.457 1.867 17.302-.642 17.302-.642v-2.22c-11.507 3.836-17.02 0-17.02 0" fill="#405967"/></g></svg>

<?xml version="1.0" encoding="UTF-8" standalone="no"?>
<!-- Generator: Adobe Illustrator 16.0.0, SVG Export Plug-In . SVG Version: 6.00 Build 0)  -->

<svg
   xmlns:dc="http://purl.org/dc/elements/1.1/"
   xmlns:cc="http://creativecommons.org/ns#"
   xmlns:rdf="http://www.w3.org/1999/02/22-rdf-syntax-ns#"
   xmlns:svg="http://www.w3.org/2000/svg"
   xmlns="http://www.w3.org/2000/svg"
   xmlns:sodipodi="http://sodipodi.sourceforge.net/DTD/sodipodi-0.dtd"
   xmlns:inkscape="http://www.inkscape.org/namespaces/inkscape"
   version="1.1"
   id="Layer_1"
   x="0px"
   y="0px"
   width="64px"
   height="64px"
   viewBox="0 0 64 64"
   enable-background="new 0 0 64 64"
   xml:space="preserve"
   inkscape:version="0.48.5 r10040"
   sodipodi:docname="1F457.svg"
   inkscape:export-filename="D:\TESTINGEMOJI\SVGTEST\1F457.png"
   inkscape:export-xdpi="90"
   inkscape:export-ydpi="90"><metadata
   id="metadata4411"><rdf:RDF><cc:Work
       rdf:about=""><dc:format>image/svg+xml</dc:format><dc:type
         rdf:resource="http://purl.org/dc/dcmitype/StillImage" /><dc:title></dc:title></cc:Work></rdf:RDF></metadata><defs
   id="defs4409" /><sodipodi:namedview
   pagecolor="#ffffff"
   bordercolor="#666666"
   borderopacity="1"
   objecttolerance="10"
   gridtolerance="10"
   guidetolerance="10"
   inkscape:pageopacity="0"
   inkscape:pageshadow="2"
   inkscape:window-width="640"
   inkscape:window-height="480"
   id="namedview4407"
   showgrid="false"
   inkscape:zoom="3.6875"
   inkscape:cx="32"
   inkscape:cy="32"
   inkscape:window-x="242"
   inkscape:window-y="241"
   inkscape:window-maximized="0"
   inkscape:current-layer="Layer_1" />
<g
   id="g4381"
   transform="translate(6,0)">
	<g
   id="g4383">
		<path
   clip-rule="evenodd"
   d="M 50.466,10.008 C 48.405,7.662 47.25,4.601 44.169,3.062 42.571,2.258 40.808,1.734 39.105,1.109 38.192,0.776 37.258,0.502 36.331,0.192 35.556,-0.072 34.892,-0.157 34.263,0.556 32.487,2.577 30.187,4.051 27.452,4.676 26.799,4.824 26.113,4.916 25.414,4.954 24.713,4.915 24.023,4.824 23.376,4.676 20.64,4.051 18.34,2.577 16.566,0.556 15.933,-0.157 15.269,-0.071 14.493,0.192 13.572,0.503 12.634,0.777 11.722,1.109 10.017,1.734 8.251,2.258 6.654,3.062 c -3.08,1.539 -4.236,4.6 -6.295,6.946 -0.197,0.219 0.029,0.875 0.256,1.226 0.199,0.294 0.674,0.442 1.033,0.656 2.14,1.26 4.6,2.062 6.433,3.779 0.524,0.487 1.376,0.672 1.991,1.104 0.339,0.239 0.644,0.68 0.696,1.063 0.148,1.025 5.345,1.433 5.509,5.468 0.171,4.214 -10.77,21.516 -11.913,25.701 -0.601,2.2 -2.828,4.417 -3.262,6.649 -0.451,2.294 -0.696,4.62 -1.019,6.845 0.893,0.325 1.437,0.662 2.003,0.702 2.633,0.188 6.912,0.395 9.552,0.395 2.412,0 11.361,-0.041 13.775,-0.09 2.409,0.049 4.823,0.09 7.232,0.09 2.641,0 15.094,-0.207 17.729,-0.395 0.568,-0.04 1.11,-0.377 2.002,-0.702 C 52.053,60.274 51.808,57.948 51.358,55.654 50.922,53.422 48.697,51.205 48.096,49.005 46.956,44.821 32.743,27.52 32.91,23.306 c 0.075,-1.829 5.253,-5.286 5.509,-7.102 0.055,-0.384 1.995,0.81 2.334,0.57 0.611,-0.433 1.47,-0.617 1.991,-1.104 1.833,-1.717 4.295,-2.519 6.433,-3.779 0.357,-0.213 0.836,-0.361 1.031,-0.656 0.228,-0.352 0.45,-1.007 0.258,-1.227 z"
   id="path4385"
   inkscape:connector-curvature="0"
   style="fill:#2780b2;fill-rule:evenodd" />
		<path
   clip-rule="evenodd"
   d="m 25.586,54.779 c -0.357,-2.765 -0.187,-5.549 -0.646,-8.313 -0.021,-0.13 -0.037,-0.228 -0.049,-0.301 -0.012,-0.053 -0.02,-0.109 -0.034,-0.179 -0.055,-0.272 -0.116,-0.544 -0.177,-0.816 -0.154,-0.689 0.921,-14.311 0.733,-14.997 -0.298,-1.08 -0.528,-1.965 -0.737,-3.065 -0.27,-1.466 -0.28,-2.673 0.221,-4.147 0.572,-1.683 -0.262,-3.636 0.98,-4.992 0.353,-0.381 0.763,-0.694 1.169,-1.031 0.012,-0.008 0.024,-0.017 0.035,-0.024 C 27.059,16.709 27.032,16.506 26.999,16.305 26.92,15.826 26.818,15.351 26.762,14.872 26.429,12.018 25.776,9.168 26.33,6.296 26.429,5.786 26.567,5.293 26.74,4.814 26.304,4.883 25.861,4.93 25.413,4.954 24.712,4.915 24.022,4.824 23.375,4.676 20.639,4.051 18.339,2.577 16.565,0.556 15.932,-0.157 15.268,-0.071 14.492,0.192 13.571,0.503 12.633,0.777 11.721,1.109 10.016,1.734 8.25,2.258 6.653,3.062 c -3.08,1.539 -4.236,4.6 -6.295,6.946 -0.197,0.219 0.029,0.875 0.256,1.226 0.199,0.294 0.674,0.442 1.033,0.656 2.14,1.26 4.6,2.062 6.433,3.779 0.524,0.487 1.376,0.672 1.991,1.104 0.339,0.239 0.644,0.68 0.696,1.063 0.148,1.025 5.345,1.433 5.509,5.468 0.171,4.214 -10.77,21.516 -11.913,25.701 -0.601,2.2 -2.828,4.417 -3.262,6.649 -0.451,2.294 -0.696,4.62 -1.019,6.845 0.893,0.325 1.437,0.662 2.003,0.702 2.633,0.188 6.912,0.395 9.552,0.395 2.412,0 11.361,-0.041 13.775,-0.09 1.224,0.024 2.446,0.045 3.672,0.061 -1.795,-2.758 -3.106,-5.763 -3.498,-8.788 z"
   id="path4387"
   inkscape:connector-curvature="0"
   style="fill:#2e8ecd;fill-rule:evenodd" />
		<g
   id="g4389">
			<path
   clip-rule="evenodd"
   d="M 1.973,7.788 C 2.574,7.053 3.108,6.264 3.648,5.482 3.046,6.217 2.511,7.004 1.973,7.788 z"
   id="path4391"
   inkscape:connector-curvature="0"
   style="fill:#1a698c;fill-rule:evenodd" />
			<path
   clip-rule="evenodd"
   d="m 10.072,16.69 c 0.339,0.24 0.644,0.678 0.696,1.064 0.03,0.203 1.697,-1.23 1.726,-1.027 0.053,-0.162 0.107,-0.325 0.16,-0.487 0.229,-0.694 -1.033,0.308 -0.55,-0.224 C 12.102,15.998 12.1,15.979 12.096,15.957 12.043,15.575 11.735,15.131 11.398,14.893 10.787,14.461 9.928,14.278 9.407,13.791 7.576,12.074 5.115,11.27 2.974,10.007 2.618,9.797 2.139,9.651 1.942,9.355 1.757,9.071 1.572,8.577 1.623,8.287 1.227,8.851 0.813,9.408 0.358,9.925 c -0.197,0.221 0.029,0.875 0.256,1.224 0.199,0.296 0.674,0.444 1.033,0.653 2.14,1.263 4.6,2.062 6.433,3.786 0.524,0.486 1.377,0.672 1.992,1.102 z"
   id="path4393"
   inkscape:connector-curvature="0"
   style="fill:#1a698c;fill-rule:evenodd" />
		</g>
		<g
   id="g4395">
			<path
   clip-rule="evenodd"
   d="M 48.858,7.836 C 48.251,7.101 47.714,6.314 47.177,5.53 c 0.601,0.731 1.137,1.521 1.681,2.306 z"
   id="path4397"
   inkscape:connector-curvature="0"
   style="fill:#1a698c;fill-rule:evenodd" />
			<path
   clip-rule="evenodd"
   d="m 40.753,16.739 c -0.339,0.24 -2.279,-0.954 -2.334,-0.572 -0.028,0.203 -0.058,0.404 -0.09,0.605 -0.053,-0.159 -0.105,-0.319 -0.156,-0.483 -0.231,-0.696 1.029,0.309 0.548,-0.225 0.002,-0.019 0.009,-0.039 0.009,-0.057 0.051,-0.384 0.359,-0.824 0.7,-1.064 0.61,-0.432 1.468,-0.613 1.991,-1.106 1.829,-1.717 4.291,-2.519 6.431,-3.78 0.356,-0.211 0.834,-0.357 1.028,-0.656 0.193,-0.284 0.372,-0.775 0.325,-1.065 0.394,0.562 0.808,1.116 1.261,1.636 0.192,0.219 -0.03,0.875 -0.258,1.226 -0.195,0.296 -0.674,0.445 -1.031,0.654 -2.138,1.263 -4.6,2.064 -6.433,3.784 -0.521,0.489 -1.38,0.671 -1.991,1.103 z"
   id="path4399"
   inkscape:connector-curvature="0"
   style="fill:#1a698c;fill-rule:evenodd" />
		</g>
		<path
   clip-rule="evenodd"
   d="m 14.913,1.187 c 2.109,2.729 4.829,4.722 8.079,5.57 0.775,0.203 1.594,0.32 2.422,0.373 0.826,-0.053 1.642,-0.17 2.417,-0.373 3.25,-0.849 5.974,-2.842 8.085,-5.57 C 36.293,0.696 36.683,0.485 37.095,0.44 36.84,0.358 36.586,0.277 36.33,0.192 35.555,-0.072 34.891,-0.157 34.262,0.556 32.486,2.577 30.186,4.051 27.451,4.676 26.798,4.824 26.112,4.916 25.413,4.954 24.712,4.915 24.022,4.824 23.375,4.676 20.639,4.051 18.339,2.577 16.565,0.556 15.932,-0.157 15.268,-0.071 14.492,0.192 14.239,0.277 13.985,0.359 13.729,0.44 c 0.415,0.044 0.802,0.255 1.184,0.747 z"
   id="path4401"
   inkscape:connector-curvature="0"
   style="fill:#1a698c;fill-rule:evenodd" />
		<path
   clip-rule="evenodd"
   d="m 50.374,60.662 c -2.635,0.179 -15.088,0.39 -17.729,0.39 C 30.236,61.048 27.822,61.016 25.413,60.963 23,61.016 14.05,61.048 11.639,61.052 8.998,61.052 4.72,60.841 2.087,60.662 1.594,60.626 1.119,60.361 0.412,60.081 c -0.105,0.816 -0.213,1.62 -0.329,2.42 0.893,0.325 1.437,0.662 2.003,0.702 2.633,0.188 6.912,0.395 9.552,0.395 2.412,0 11.361,-0.041 13.775,-0.09 2.409,0.049 4.823,0.09 7.232,0.09 2.641,0 15.094,-0.207 17.729,-0.395 0.568,-0.04 1.11,-0.377 2.002,-0.702 -0.116,-0.8 -0.224,-1.604 -0.329,-2.42 -0.704,0.28 -1.18,0.545 -1.673,0.581 z"
   id="path4403"
   inkscape:connector-curvature="0"
   style="fill:#1a698c;fill-rule:evenodd" />
	</g>
	<path
   d="m 16.167,22.5 -0.329,2.854 c 0.016,0.002 0.032,0.006 0.048,0.008 11.457,1.867 17.302,-0.642 17.302,-0.642 V 22.5 c -11.507,3.836 -17.021,0 -17.021,0 z"
   id="path4405"
   inkscape:connector-curvature="0"
   style="fill:#405967" />
</g>
</svg>
